src/lib/packages/icons/src/assets/line/shopping-cart-plus.svg

<svg width="24" height="24" viewBox="0 0 24 24" fill="none" xmlns="http://www.w3.org/2000/svg">
<path d="M10.27 21C10.27 21.69 9.71002 22.25 9.02002 22.25C8.33102 22.25 7.76501 21.69 7.76501 21C7.76501 20.31 8.32001 19.75 9.01001 19.75H9.02002C9.71002 19.75 10.27 20.31 10.27 21ZM17.02 19.75H17.01C16.32 19.75 15.765 20.31 15.765 21C15.765 21.69 16.33 22.25 17.02 22.25C17.71 22.25 18.27 21.69 18.27 21C18.27 20.31 17.71 19.75 17.02 19.75ZM21.705 8.492L20.691 14.658C20.428 16.104 19.774 17.75 17 17.75H8.73401C7.37501 17.75 6.20396 16.735 6.01196 15.389L4.50195 4.82401C4.41395 4.21201 3.88301 3.75101 3.26501 3.75101H3C2.586 3.75101 2.25 3.41501 2.25 3.00101C2.25 2.58701 2.586 2.25101 3 2.25101H3.26599C4.62499 2.25101 5.79604 3.266 5.98804 4.612L6.07996 5.25101H19C19.818 5.25101 20.5881 5.611 21.1121 6.239C21.6351 6.866 21.852 7.688 21.705 8.492ZM19.959 7.19901C19.721 6.91401 19.371 6.75 18.999 6.75H6.29297L7.49695 15.177C7.58495 15.789 8.11601 16.25 8.73401 16.25H17C18.597 16.25 18.986 15.654 19.213 14.403L20.2271 8.23599C20.2961 7.85799 20.197 7.484 19.959 7.19901ZM15.5 10.75H14.25V9.5C14.25 9.086 13.914 8.75 13.5 8.75C13.086 8.75 12.75 9.086 12.75 9.5V10.75H11.5C11.086 10.75 10.75 11.086 10.75 11.5C10.75 11.914 11.086 12.25 11.5 12.25H12.75V13.5C12.75 13.914 13.086 14.25 13.5 14.25C13.914 14.25 14.25 13.914 14.25 13.5V12.25H15.5C15.914 12.25 16.25 11.914 16.25 11.5C16.25 11.086 15.914 10.75 15.5 10.75Z" fill="currentColor"/>
</svg>

<svg xmlns="http://www.w3.org/2000/svg" width="24" height="24" fill="none"><path fill="currentColor" d="M10.27 21c0 .69-.56 1.25-1.25 1.25-.689 0-1.255-.56-1.255-1.25s.555-1.25 1.245-1.25h.01c.69 0 1.25.56 1.25 1.25Zm6.75-1.25h-.01c-.69 0-1.245.56-1.245 1.25s.565 1.25 1.255 1.25a1.25 1.25 0 0 0 0-2.5Zm4.685-11.258-1.014 6.166c-.263 1.446-.917 3.092-3.691 3.092H8.734a2.763 2.763 0 0 1-2.722-2.361L4.502 4.824a1.256 1.256 0 0 0-1.237-1.073H3a.75.75 0 0 1 0-1.5h.266a2.763 2.763 0 0 1 2.722 2.361l.092.639H19c.818 0 1.588.36 2.112.988a2.74 2.74 0 0 1 .593 2.253Zm-1.746-1.293a1.248 1.248 0 0 0-.96-.449H6.293l1.204 8.427a1.256 1.256 0 0 0 1.237 1.073H17c1.597 0 1.986-.596 2.213-1.847l1.014-6.167a1.253 1.253 0 0 0-.268-1.037ZM15.5 10.75h-1.25V9.5a.75.75 0 0 0-1.5 0v1.25H11.5a.75.75 0 0 0 0 1.5h1.25v1.25a.75.75 0 0 0 1.5 0v-1.25h1.25a.75.75 0 0 0 0-1.5Z"/></svg>
